actions/22x22-light/media-album-track.svg

<svg viewBox="0 0 22 22" xmlns="http://www.w3.org/2000/svg"><path d="m4.0117188 3c-.560959 0-1.0117188.4507598-1.0117188 1.0117188v13.9765622c0 .560959.4507598 1.011719 1.0117188 1.011719h13.9765622c.560959 0 1.011719-.45076 1.011719-1.011719v-13.9765622c0-.560959-.45076-1.0117188-1.011719-1.0117188zm9.8925782 3.3007812c.214262.0378063.371094.2370906.371094.5058594l-.017579 6.9902344c-.070631.521531-.513824 1.014666-1.15625 1.189453-.80525.219075-1.598871-.144734-1.771484-.798828-.172619-.654094.333409-1.362956 1.138672-1.582031.446231-.12135.875806-.046988 1.210938.136719v-4.2363286l-4.1757818 1.171875-.0195312 5.3671876c-.0706063.521456-.5138249 1.0167-1.15625 1.191406-.8052564.219075-1.596925-.146762-1.7695312-.800781-.1726188-.654169.331456-1.361003 1.1367187-1.580078.4462501-.12135.8757812-.046988 1.2109375.136719v-5.6816411c0-.3583376.2671562-.7275438.5976562-.8203125z" fill="#4d4d4d"/></svg>

<svg xmlns="http://www.w3.org/2000/svg" viewBox="0 0 22 22">
  <defs id="defs3051">
    <style type="text/css" id="current-color-scheme">
      .ColorScheme-Text {
        color:#4d4d4d
      }
      </style>
  </defs>
 <path 
     style="fill:currentColor;fill-opacity:1;stroke:none"      
	 class="ColorScheme-Text"
        d="M 4.0117188 3 C 3.4507598 3 3 3.4507598 3 4.0117188 L 3 17.988281 C 3 18.54924 3.4507598 19 4.0117188 19 L 17.988281 19 C 18.54924 19 19 18.54924 19 17.988281 L 19 4.0117188 C 19 3.4507598 18.54924 3 17.988281 3 L 4.0117188 3 z M 13.904297 6.3007812 C 14.118559 6.3385875 14.275391 6.5378718 14.275391 6.8066406 L 14.257812 13.796875 C 14.187181 14.318406 13.743988 14.811541 13.101562 14.986328 C 12.296312 15.205403 11.502691 14.841594 11.330078 14.1875 C 11.157459 13.533406 11.663487 12.824544 12.46875 12.605469 C 12.914981 12.484119 13.344556 12.558481 13.679688 12.742188 L 13.679688 8.5058594 L 9.5039062 9.6777344 L 9.484375 15.044922 C 9.4137687 15.566378 8.9705501 16.061622 8.328125 16.236328 C 7.5228686 16.455403 6.7312 16.089566 6.5585938 15.435547 C 6.385975 14.781378 6.8900498 14.074544 7.6953125 13.855469 C 8.1415626 13.734119 8.5710937 13.808481 8.90625 13.992188 L 8.90625 8.3105469 C 8.90625 7.9522093 9.1734062 7.5830031 9.5039062 7.4902344 L 13.904297 6.3007812 z "
     />
</svg>
